X:1
T:Title
%%score 1 { 2 | 3 }
L:1/8
Q:1/4=145
M:4/4
K:G
V:1 treble nm="Grand Piano, Staff 1"
V:2 bass nm="Choir Pad, Ennius, 77.77 D"
V:3 bass 
V:1
 [DB]3 [DA] [DG]4- | [DG]2 [DG]2 [DF]2 [DG]2 | [FA]8 | [Fd]3 [Fc] [GB]4- | %4
w: By~Harmonia~Sacra,~19th~Century * *||||
 [GB]2 [FA]2 [B,G]2 [DF]2 | [DG]8 | [DB]3 [DA] [DG]4- | [DG]2 [DG]2 [DF]2 [DG]2 | [FA]8 | %9
w: |||||
 [Fd]3 [Fc] [GB]4- | [GB]2 [FA]2 [B,G]2 [DF]2 | [DG]8 | [GB]3 [GB] [FA]4- | %13
w: ||||
 [FA]2 [GB]2 [Ac]2 [Bd]2 | [Ac]4 [GB]4 | [GB]3 [GB] [FA]4- | [FA]2 [GB]2 [Ac]2 [GB]2 | %17
w: ||||
 [DGB]4 [FA]4 | [DB]3 [DA] [DG]4- | [DG]2 [DG]2 [DF]2 [DG]2 | [FA]8 | [Fd]3 [Fc] [GB]4- | %22
w: |||||
 [GB]2 [FA]2 G2 [DF]2 | [DG]8 |] %24
w: ||
V:2
 B,3 A, B,4- | B,2 B,2 A,2 A,2 | A,8 | A,3 D D4- | D2 C2 D,2 A,2 | B,8 | B,3 A, B,4- | %7
 B,2 B,2 A,2 A,2 | A,8 | A,3 D D4- | D2 C2 D,2 A,2 | B,8 | G,3 G,[K:treble] D4- | D2 D2 D2 D2 | %14
 D8 | D3 D D4- | D2 D2 D2 D2 | D,8 | G,3 A, B,4- | B,2 B,2 A,2 A,2 | A,8 | A,3[K:treble] D D4- | %22
 D2 C2 B,2 A,2 | B,8 |] %24
V:3
 z2 z F, G,4- | G,2 G,2 D,2 D,2 | D,8 | D,3 D, G,4- | G,2 C,2 z2 D,2 | G,,8 | G,3 F, G,4- | %7
 G,2 G,2 D,2 D,2 | D,8 | D,3 D, G,4- | G,2 C,2 z2 D,2 | G,,8 | z4 D,4- | D,2 D,2 D,2 D,2 | G,8 | %15
 G,3 G, D,4- | D,2 D,2 D,2 D,2 | z8 | z2 z F, G,4- | G,2 G,2 D,2 D,2 | D,8 | D,3 D, G,4- | %22
 G,2 C,2 D,2 D,2 | G,,8 |] %24

